.icons/Gruvbox-Plus-Dark/apps/16/stoken-gui.svg

<?xml version="1.0" encoding="UTF-8" standalone="no"?>
<svg
   style="isolation:isolate"
   width="16"
   height="16"
   viewBox="0 0 16 16"
   version="1.1"
   id="svg68"
   sodipodi:docname="stoken-gui.svg"
   inkscape:version="1.1.1 (3bf5ae0d25, 2021-09-20, custom)"
   xmlns:inkscape="http://www.inkscape.org/namespaces/inkscape"
   xmlns:sodipodi="http://sodipodi.sourceforge.net/DTD/sodipodi-0.dtd"
   xmlns="http://www.w3.org/2000/svg"
   xmlns:svg="http://www.w3.org/2000/svg">
  <sodipodi:namedview
     id="namedview70"
     pagecolor="#ffffff"
     bordercolor="#666666"
     borderopacity="1.0"
     inkscape:pageshadow="2"
     inkscape:pageopacity="0.0"
     inkscape:pagecheckerboard="0"
     showgrid="false"
     inkscape:zoom="11.313709"
     inkscape:cx="14.053747"
     inkscape:cy="3.9774756"
     inkscape:window-width="948"
     inkscape:window-height="1044"
     inkscape:window-x="964"
     inkscape:window-y="28"
     inkscape:window-maximized="0"
     inkscape:current-layer="svg68" />
  <defs
     id="defs64">
    <style
       id="current-color-scheme"
       type="text/css">
   .ColorScheme-Text { color:#ebdbb2; } .ColorScheme-Highlight { color:#458588; }
  </style>
    <linearGradient
       id="arrongin"
       x1="0%"
       x2="0%"
       y1="0%"
       y2="100%">
      <stop
         offset="0%"
         style="stop-color:#d79921; stop-opacity:1"
         id="stop3" />
      <stop
         offset="100%"
         style="stop-color:#b57614; stop-opacity:1"
         id="stop5" />
    </linearGradient>
    <linearGradient
       id="aurora"
       x1="0%"
       x2="0%"
       y1="0%"
       y2="100%">
      <stop
         offset="0%"
         style="stop-color:#83a598; stop-opacity:1"
         id="stop8" />
      <stop
         offset="100%"
         style="stop-color:#b16286; stop-opacity:1"
         id="stop10" />
    </linearGradient>
    <linearGradient
       id="fitdance"
       x1="0%"
       x2="0%"
       y1="0%"
       y2="100%">
      <stop
         offset="0%"
         style="stop-color:#8ec07c; stop-opacity:1"
         id="stop13" />
      <stop
         offset="100%"
         style="stop-color:#458588; stop-opacity:1"
         id="stop15" />
    </linearGradient>
    <linearGradient
       id="oomox"
       x1="0%"
       x2="0%"
       y1="0%"
       y2="100%">
      <stop
         offset="0%"
         style="stop-color:#458588; stop-opacity:1"
         id="stop18" />
      <stop
         offset="100%"
         style="stop-color:#928374; stop-opacity:1"
         id="stop20" />
    </linearGradient>
    <linearGradient
       id="rainblue"
       x1="0%"
       x2="0%"
       y1="0%"
       y2="100%">
      <stop
         offset="0%"
         style="stop-color:#b8bb26; stop-opacity:1"
         id="stop23" />
      <stop
         offset="100%"
         style="stop-color:#076678; stop-opacity:1"
         id="stop25" />
    </linearGradient>
    <linearGradient
       id="sunrise"
       x1="0%"
       x2="0%"
       y1="0%"
       y2="100%">
      <stop
         offset="0%"
         style="stop-color: #fe8019; stop-opacity:1"
         id="stop28" />
      <stop
         offset="100%"
         style="stop-color: #fabd2f; stop-opacity:1"
         id="stop30" />
    </linearGradient>
    <linearGradient
       id="telinkrin"
       x1="0%"
       x2="0%"
       y1="0%"
       y2="100%">
      <stop
         offset="0%"
         style="stop-color: #83a598; stop-opacity:1"
         id="stop33" />
      <stop
         offset="100%"
         style="stop-color: #83a598; stop-opacity:1"
         id="stop35" />
    </linearGradient>
    <linearGradient
       id="60spsycho"
       x1="0%"
       x2="0%"
       y1="0%"
       y2="100%">
      <stop
         offset="0%"
         style="stop-color: #fb4934; stop-opacity:1"
         id="stop38" />
      <stop
         offset="25%"
         style="stop-color: #fabd2f; stop-opacity:1"
         id="stop40" />
      <stop
         offset="50%"
         style="stop-color: #fe8019; stop-opacity:1"
         id="stop42" />
      <stop
         offset="100%"
         style="stop-color: #689d6a; stop-opacity:1"
         id="stop44" />
    </linearGradient>
    <linearGradient
       id="90ssummer"
       x1="0%"
       x2="0%"
       y1="0%"
       y2="100%">
      <stop
         offset="0%"
         style="stop-color: #b16286; stop-opacity:1"
         id="stop47" />
      <stop
         offset="20%"
         style="stop-color: #8ec07c; stop-opacity:1"
         id="stop49" />
      <stop
         offset="50%"
         style="stop-color: #fabd2f; stop-opacity:1"
         id="stop51" />
      <stop
         offset="100%"
         style="stop-color: #458588; stop-opacity:1"
         id="stop53" />
    </linearGradient>
    <linearGradient
       id="cyberneon"
       x1="0%"
       x2="0%"
       y1="0%"
       y2="100%">
      <stop
         offset="0"
         style="stop-color:#83a598; stop-opacity:1"
         id="stop56" />
      <stop
         offset="1"
         style="stop-color:#b16286; stop-opacity:1"
         id="stop58" />
    </linearGradient>
    <clipPath
       id="_clipPath_5GocJQdCsxjpG2gmNIuHdF5aGyML2XSs">
      <rect
         width="16"
         height="16"
         id="rect61" />
    </clipPath>
  </defs>
  <path
     style="fill:currentColor;stroke-width:1.14339"
     class="ColorScheme-Text"
     d="M 6.3452125,2.481808 C 3.6182423,2.4831458 1.3008008,4.4753676 0.89178291,7.1714895 h -0.0647622 c -0.45856588,0 -0.82851042,0.3699444 -0.82851042,0.8285104 0,0.4585659 0.36994454,0.8285105 0.82851042,0.8285105 h 0.0647627 C 1.3008012,11.524634 3.6182419,13.516851 6.3452129,13.518192 7.8211841,13.513092 9.233508,12.917478 10.26668,11.863404 h 3.883502 C 15.319502,10.921849 15.999832,9.5012761 16.00149,7.9999999 15.99979,6.4987241 15.319501,5.0781497 14.150182,4.1365957 H 10.284545 C 9.2470505,3.078129 7.8273549,2.4822092 6.3452125,2.481808 Z m 0,2.1192895 C 8.2223825,4.6012316 9.7439811,6.1228301 9.744115,7.9999999 9.7439808,9.877169 8.2223819,11.398767 6.3452125,11.398902 4.4680433,11.398767 2.9464443,9.877169 2.9463101,7.9999999 2.946444,6.1228303 4.4680428,4.6012315 6.3452125,4.6010975 Z"
     id="path66" />
</svg>

<svg width="16" height="16" version="1.1" xmlns="http://www.w3.org/2000/svg">
  <defs>
    <style type="text/css" id="current-color-scheme">.ColorScheme-Text { color:#ebdbb2; } .ColorScheme-Highlight { color:#458588; }</style>
  </defs>
  <path class="ColorScheme-Text" d="m6.345 2.482c-2.727 0.001338-5.044 1.994-5.453 4.69h-0.06476c-0.4586 0-0.8285 0.3699-0.8285 0.8285s0.3699 0.8285 0.8285 0.8285h0.06476c0.409 2.696 2.726 4.688 5.453 4.69 1.476-0.0051 2.888-0.6007 3.922-1.655h3.884c1.169-0.9416 1.85-2.362 1.851-3.863-0.0017-1.501-0.682-2.922-1.851-3.863h-3.866c-1.038-1.058-2.457-1.654-3.939-1.655zm0 2.119c1.877 1.341e-4 3.399 1.522 3.399 3.399-1.342e-4 1.877-1.522 3.399-3.399 3.399-1.877-1.35e-4 -3.399-1.522-3.399-3.399 1.339e-4 -1.877 1.522-3.399 3.399-3.399z" fill="currentColor"/>
</svg>
